images/apple.svg

<?xml version="1.0" encoding="UTF-8" standalone="no"?>
<svg width="14px" height="18px" viewBox="0 0 14 18" version="1.1" xmlns="http://www.w3.org/2000/svg" xmlns:xlink="http://www.w3.org/1999/xlink" xmlns:sketch="http://www.bohemiancoding.com/sketch/ns">
    <!-- Generator: Sketch 3.5 (25232) - http://www.bohemiancoding.com/sketch -->
    <title>apple</title>
    <desc>Created with Sketch.</desc>
    <defs></defs>
    <g id="Landing" stroke="none" stroke-width="1" fill="none" fill-rule="evenodd" sketch:type="MSPage">
        <g id="notebook-main" sketch:type="MSArtboardGroup" transform="translate(-651.000000, -643.000000)" fill="#A7AABE">
            <g id="content-+-header-+-Macbook-Space-Grey" sketch:type="MSLayerGroup" transform="translate(-480.000000, 102.000000)">
                <g id="content" transform="translate(1002.000000, 153.000000)" sketch:type="MSShapeGroup">
                    <g id="---------+-Available-for--+-penguin-flat" transform="translate(13.000000, 388.000000)">
                        <g id="apple" transform="translate(116.000000, 0.000000)">
                            <path d="M10.2154018,0.993303571 C10.2154018,1.40178776 10.1183045,1.85714035 9.92410714,2.359375 C9.72321328,2.86160965 9.41183247,3.3236586 8.98995536,3.74553571 C8.62834641,4.10714467 8.26674288,4.34821368 7.90513393,4.46875 C7.65736483,4.54241108 7.30915403,4.59933016 6.86049107,4.63950893 C6.88058046,3.64173608 7.14173856,2.78125362 7.64397321,2.05803571 C8.13951141,1.34151427 8.97655661,0.845983516 10.1551339,0.571428571 C10.1618304,0.591517958 10.1702008,0.628347946 10.1802455,0.681919643 C10.1902902,0.735491339 10.1986607,0.772321328 10.2053571,0.792410714 C10.2053571,0.819196563 10.2070312,0.852678371 10.2103795,0.892857143 C10.2137277,0.933035915 10.2154018,0.966517723 10.2154018,0.993303571 L10.2154018,0.993303571 Z" id="Path"></path>
                            <path d="M13.9921875,12.7756696 C13.7310255,13.6127274 13.3191992,14.4497726 12.7566964,15.2868304 C11.8928528,16.5993369 11.0323704,17.2555804 10.1752232,17.2555804 C9.84709657,17.2555804 9.37835126,17.1484386 8.76897321,16.9341518 C8.19307748,16.719865 7.68750218,16.6127232 7.25223214,16.6127232 C6.84374796,16.6127232 6.36830628,16.7232132 5.82589286,16.9441964 C5.28347943,17.1718761 4.84151956,17.2857143 4.5,17.2857143 C3.48213777,17.2857143 2.47433535,16.4185355 1.4765625,14.6841518 C0.492182578,12.9363752 0,11.2522402 0,9.63169643 C0,8.10490308 0.378344431,6.85268346 1.13504464,5.875 C1.88504839,4.91070946 2.83593174,4.42857143 3.98772321,4.42857143 C4.46986848,4.42857143 5.06249648,4.52901685 5.765625,4.72991071 C6.46205705,4.93080458 6.924106,5.03125 7.15178571,5.03125 C7.45312651,5.03125 7.93191636,4.91741185 8.58816964,4.68973214 C9.27120877,4.46205243 9.85044405,4.34821429 10.3258929,4.34821429 C11.1227718,4.34821429 11.8359344,4.56584604 12.4654018,5.00111607 C12.8136178,5.24218871 13.1618286,5.57700679 13.5100446,6.00558036 C12.9810241,6.45424331 12.5993315,6.84932865 12.3649554,7.19084821 C11.9296853,7.82031565 11.7120536,8.51338907 11.7120536,9.27008929 C11.7120536,10.1004506 11.943078,10.8470949 12.4051339,11.5100446 C12.8671898,12.1729944 13.3962024,12.5948652 13.9921875,12.7756696 L13.9921875,12.7756696 Z" id="Path"></path>
                        </g>
                    </g>
                </g>
            </g>
        </g>
    </g>
</svg>

<svg width="14" height="18" viewBox="0 0 14 18" xmlns="http://www.w3.org/2000/svg"><title>apple</title><g fill="#A7AABE" fill-rule="evenodd"><path d="M10.215.993c0 .41-.097.864-.29 1.366-.202.502-.513.964-.935 1.386-.362.36-.723.602-1.085.723-.248.072-.596.13-1.045.17.02-.998.282-1.86.784-2.582C8.14 1.342 8.977.846 10.154.57c.008.022.016.058.026.112.01.053.02.09.025.11 0 .027.002.06.005.1.004.04.005.075.005.1z"/><path d="M13.992 12.776c-.26.837-.673 1.674-1.235 2.51-.864 1.313-1.725 1.97-2.582 1.97-.328 0-.797-.108-1.406-.322-.577-.214-1.082-.32-1.518-.32-.408 0-.884.11-1.426.33-.543.228-.984.342-1.326.342-1.018 0-2.026-.867-3.023-2.602C.492 12.936 0 11.252 0 9.632c0-1.527.378-2.78 1.135-3.757.75-.964 1.7-1.446 2.853-1.446.482 0 1.074.1 1.778.3.696.2 1.158.3 1.386.3.3 0 .78-.113 1.436-.34.683-.228 1.262-.342 1.738-.342.797 0 1.51.218 2.14.653.348.242.696.577 1.044 1.006-.53.448-.91.843-1.145 1.185-.435.63-.653 1.323-.653 2.08 0 .83.23 1.577.693 2.24.462.663.99 1.085 1.587 1.266z"/></g></svg>
